img/bar.svg

<svg width="50" height="37" viewBox="0 0 50 37" fill="none" xmlns="http://www.w3.org/2000/svg">
<path d="M0 2.21385C0.142261 2.10021 0.1256 1.9309 0.185837 1.78886C0.629282 0.736616 1.74046 0.021863 3.02209 0.00709071C4.22298 -0.00654527 5.42515 0.00368171 6.62604 0.00368171C19.5705 0.00368171 32.515 0.00368171 45.4595 0.00368171C47.6909 0.00368171 48.4252 0.452533 49.2147 2.30021C49.2147 2.58429 49.2147 2.86724 49.2147 3.15132C49.1058 3.41495 49.0276 3.69335 48.8815 3.94107C48.324 4.88536 47.4281 5.38194 46.2272 5.44557C46.0363 5.4558 45.8427 5.44898 45.6505 5.44898C31.7294 5.44898 17.8096 5.43307 3.88848 5.4683C1.95449 5.46944 0.601086 4.92854 0 3.23541C0 2.89451 0 2.55475 0 2.21385Z" fill="white"/>
<path d="M49.2147 18.5023C49.1058 18.7662 49.0276 19.0449 48.8815 19.2928C48.324 20.2379 47.4281 20.735 46.2272 20.7987C46.0363 20.8089 45.8427 20.8021 45.6505 20.8021C31.7294 20.8021 17.8096 20.7861 3.88848 20.8214C1.95449 20.8248 0.601086 20.2823 0 18.5876C0 18.2476 0 17.9064 0 17.5663C0.143543 17.4378 0.13329 17.2558 0.201216 17.1011C0.645943 16.0877 1.7443 15.3917 2.97467 15.3564C3.16692 15.3507 3.35916 15.3541 3.55141 15.3541C17.5212 15.3541 31.491 15.3541 45.4595 15.3541C47.6883 15.3541 48.4252 15.8057 49.2147 17.6527C49.2147 17.9348 49.2147 18.2191 49.2147 18.5023Z" fill="white"/>
<path d="M49.2147 33.8517C49.1058 34.1155 49.0276 34.3941 48.8815 34.642C48.324 35.5869 47.4281 36.0838 46.2272 36.1475C46.0363 36.1577 45.8427 36.1509 45.6505 36.1509C31.7294 36.1509 17.8096 36.135 3.88848 36.1703C1.95449 36.1737 0.601086 35.6313 0 33.937C0 33.597 0 33.2558 0 32.9158C0.142261 32.8021 0.126882 32.6327 0.185837 32.4905C0.625437 31.4489 1.72123 30.7416 2.97339 30.7053C3.16563 30.6996 3.35788 30.703 3.55012 30.703C17.5199 30.703 31.4897 30.703 45.4583 30.703C47.687 30.703 48.424 31.1544 49.2134 33.0011C49.2147 33.2842 49.2147 33.5674 49.2147 33.8517Z" fill="white"/>
</svg>

<svg width="50" height="37" fill="none" xmlns="http://www.w3.org/2000/svg"><path d="M0 2.214c.142-.114.126-.283.186-.425C.629.737 1.74.022 3.022.007 4.223-.007 5.425.004 6.626.004H45.46c2.23 0 2.965.449 3.755 2.296v.851c-.11.264-.187.542-.334.79-.557.944-1.453 1.44-2.654 1.505-.19.01-.384.003-.576.003-13.922 0-27.841-.016-41.763.02-1.934 0-3.287-.54-3.888-2.234V2.214ZM49.215 18.502c-.11.264-.187.543-.334.79-.557.946-1.453 1.443-2.654 1.507-.19.01-.384.003-.576.003-13.922 0-27.841-.016-41.763.02-1.934.003-3.287-.54-3.888-2.234v-1.022c.144-.128.133-.31.201-.465.445-1.013 1.543-1.71 2.774-1.745.192-.005.384-.002.576-.002H45.46c2.228 0 2.965.452 3.755 2.299v.85ZM49.215 33.852c-.11.264-.187.542-.334.79-.557.945-1.453 1.442-2.654 1.505-.19.01-.384.004-.576.004-13.922 0-27.841-.016-41.763.02-1.934.003-3.287-.54-3.888-2.234v-1.021c.142-.114.127-.283.186-.425.44-1.042 1.535-1.75 2.787-1.786.193-.005.385-.002.577-.002h41.908c2.229 0 2.966.451 3.755 2.298.002.283.002.566.002.85Z" fill="#fff"/></svg>
